src/icons/drive.svg

<svg viewBox="0 0 207.027 207.027"><path d="M69.866 15.557L0 138.919l28.732 52.552 143.288-.029 35.008-59.588L136.39 15.735l-66.524-.178zm-52.7 123.489L74.268 38.205 91.21 67.783 33.24 168.447l-16.074-29.401zm82.675-56.195l23.805 41.558-47.732-.006 23.927-41.552zm63.593 93.592l-117.332.024 21.53-37.065 64.606.008.067.119 52.865-.085-21.736 36.999zm-22.502-52.032L90.157 35.767l-2.966-5.178 40.751.121 57.003 93.706-44.013-.005z"/></svg>

<svg viewBox="0 0 207.027 207.027">
    <path d="M69.866,15.557L0,138.919l28.732,52.552l143.288-0.029l35.008-59.588L136.39,15.735L69.866,15.557z M17.166,139.046
	L74.268,38.205L91.21,67.783L33.24,168.447L17.166,139.046z M99.841,82.851l23.805,41.558l-47.732-0.006L99.841,82.851z
	 M163.434,176.443l-117.332,0.024l21.53-37.065l64.606,0.008l0.067,0.119l52.865-0.085L163.434,176.443z M140.932,124.411
	L90.157,35.767l-2.966-5.178l40.751,0.121l57.003,93.706L140.932,124.411z"/>
</svg>
